!!!COM:	Bach, Johann Sebastian
!!!CDT:	1685/02/21/-1750/07/28/
!!!OTL@@DE:	Auf meinen lieben Gott
!!!SCT:	BWV 5/7
!!!PC#:	304
!!!AGN:	chorale
**kern	**kern	**kern	**kern
*ICvox	*ICvox	*ICvox	*ICvox
*Ibass	*Itenor	*Ialto	*Isoprn
*I"Bass	*I"Tenor	*I"Alto	*I"Soprano
*clefF4	*clefGv2	*clefG2	*clefG2
*k[b-e-]	*k[b-e-]	*k[b-e-]	*k[b-e-]
*g:	*g:	*g:	*g:
*M4/4	*M4/4	*M4/4	*M4/4
*met(c)	*met(c)	*met(c)	*met(c)
*MM100	*MM100	*MM100	*MM100
4G	4B-	4d	4g
=1	=1	=1	=1
8cL	4c	4e-	4g
8B-J	.	.	.
4A	4c	8eL	4a
.	.	8f#J	.
8GL	4d	4g	4b-
8FnXJ	.	.	.
4E-X	4e-X	4g	4cc
=2	=2	=2	=2
2.D;	2.A;	2.f#;	2.dd;
4C	4A	4f#	4dd
=3	=3	=3	=3
4BB-	4B-	4g	4dd
4AA	4c	8gL	4cc
.	.	8f#J	.
4GG	4d	4g	4b-
4C	4e-	4a	4cc
=4	=4	=4	=4
2.D;	2.d;	2.f#;	2.a;
4D	4d	4f#	4a
=5	=5	=5	=5
4G	4d	4g	4b-
8FnXL	4e-	4a	4cc
8E-J	.	.	.
8DL	4f	4b-	4dd
8CJ	.	.	.
4BB-	4f	4b-	4dd
=6	=6	=6	=6
4E-	4g	4b-	2cc
4F	8fL	8aL	.
.	8e-J	8gJ	.
4F#;	4d;	4a;	4dd;
4D	4A	4f#	4dd
=7	=7	=7	=7
4G	4B-	4d	4b-
4A	8fnXL	4c	4cc
.	8e-J	.	.
8B-L	8dL	4f	4dd
8AJ	8cJ	.	.
8GL	4B-	4g	4dd
8FJ	.	.	.
=8	=8	=8	=8
4E-	4B-	4g	2cc
4F	4A	8fL	.
.	.	8e-J	.
4BB-;	4F;	4d;	4b-;
4B-	4B-	4f	4dd
=9	=9	=9	=9
4A	4c	4f	4ff
4B-	4d	8fL	4dd
.	.	8gJ	.
4F#	8dL	4a	4dd
.	8cJ	.	.
8GL	4B-	4g	4dd
8FJ	.	.	.
=10	=10	=10	=10
4E	8B-L	8gL	2cc
.	8A	8f	.
4C	8B-	8g	.
.	8GJ	8eJ	.
4F;	4A;	4f;	4cc;
4F	4A	8fL	4cc
.	.	8e-J	.
=11	=11	=11	=11
4BB-	4B-	4d	4dd
8CL	4A	8eL	4cc
8DJ	.	8f#J	.
4E-X	8GL	4g	4b-
.	8B-J	.	.
8DL	4e-	4g	4cc
8CJ	.	.	.
=12	=12	=12	=12
2D	8dL	4g	2a
.	16cL	.	.
.	16B-JJ	.	.
.	4c	4f#	.
4GG;	4B;	4d;	4g;
==	==	==	==
*-	*-	*-	*-
!!!hum2abc: -Q ''
!!!title: @{PC#}. @{OTL@@DE}
!!!YOR1: 371 vierstimmige Choralges&auml;nge von Johann Sebastian Bach, 
!!!YOR2: 4th ed. by Alfred D&ouml;rffel (Leipzig: Breitkopf und H&auml;rtel, 
!!!YOR2: c.1875). 178 pp. Plate "V.A.10".  reprint: J.S. Bach, 371 Four-Part 
!!!YOR4: Chorales (New York: Associated Music Publishers, Inc., c.1940).
!!!SMS: B&H, 4th ed, Alfred D&ouml;rffel, c.1875, plate V.A.10
!!!EED:  Craig Stuart Sapp
!!!EEV:  2009/05/22
